packages/icons/svg/Fill/skip-back.svg

<svg width="24" height="24" viewBox="0 0 24 24" fill="none" xmlns="http://www.w3.org/2000/svg">
<g id="Icon/Fill/skip-back">
<path id="Mask" fill-rule="evenodd" clip-rule="evenodd" d="M16.4502 6.20121C15.7162 5.85621 14.8482 5.95821 14.2412 6.46121L9.14124 10.6742C9.08824 10.7182 9.04724 10.7692 9.00024 10.8182V7.00021C9.00024 6.44721 8.55224 6.00021 8.00024 6.00021C7.44824 6.00021 7.00024 6.44721 7.00024 7.00021V17.0002C7.00024 17.5532 7.44824 18.0002 8.00024 18.0002C8.55224 18.0002 9.00024 17.5532 9.00024 17.0002V13.1812C9.04724 13.2302 9.08824 13.2822 9.14124 13.3262L14.2412 17.5402C14.6092 17.8442 15.0732 18.0012 15.5442 18.0012C15.8512 18.0012 16.1612 17.9342 16.4502 17.7992C17.0972 17.4932 17.5002 16.8862 17.5002 16.2132V7.78721C17.5002 7.11421 17.0972 6.50721 16.4502 6.20121Z" fill="#000000"/>
</g>
</svg>

<svg fill="none" height="24" viewBox="0 0 24 24" width="24" xmlns="http://www.w3.org/2000/svg"><path clip-rule="evenodd" d="m16.4502 6.20121c-.734-.345-1.602-.243-2.209.26l-5.10001 4.21299c-.053.044-.094.095-.141.144v-3.81799c0-.553-.448-1-1-1s-1 .447-1 1v9.99999c0 .553.448 1 1 1s1-.447 1-1v-3.819c.047.049.088.101.141.145l5.10001 4.214c.368.304.832.461 1.303.461.307 0 .617-.067.906-.202.647-.306 1.05-.913 1.05-1.586v-8.42599c0-.673-.403-1.28-1.05-1.586" fill="#6b7280" fill-rule="evenodd"/></svg>
